x-pack/solutions/observability/plugins/observability_onboarding/public/assets/charts_screen.svg

<svg width="162" height="117" viewBox="0 0 162 117" fill="none" xmlns="http://www.w3.org/2000/svg">
<g clip-path="url(#clip0_6_66533)">
<rect width="162" height="117" rx="3.6" fill="#F7F8FC"/>
<g filter="url(#filter0_dddd_6_66533)">
<rect width="135" height="99" transform="translate(27 18)" fill="white"/>
<rect x="37.6387" y="105.891" width="6.75" height="1.8" rx="0.9" fill="#D3DAE6"/>
<rect x="52.9395" y="105.891" width="6.75" height="1.8" rx="0.9" fill="#D3DAE6"/>
<rect x="68.2383" y="105.891" width="6.75" height="1.8" rx="0.9" fill="#D3DAE6"/>
<rect x="83.5391" y="105.891" width="6.75" height="1.8" rx="0.9" fill="#D3DAE6"/>
<rect x="98.8379" y="105.891" width="6.75" height="1.8" rx="0.9" fill="#D3DAE6"/>
<rect x="114.139" y="105.891" width="6.75" height="1.8" rx="0.9" fill="#D3DAE6"/>
<rect x="129.439" y="105.891" width="6.75" height="1.8" rx="0.9" fill="#D3DAE6"/>
<rect x="144.738" y="105.891" width="6.75" height="1.8" rx="0.9" fill="#D3DAE6"/>
<rect x="37.6387" y="62.6907" width="6.75" height="1.8" rx="0.9" fill="#D3DAE6"/>
<rect x="52.9395" y="62.6907" width="6.75" height="1.8" rx="0.9" fill="#D3DAE6"/>
<rect x="68.2383" y="62.6907" width="6.75" height="1.8" rx="0.9" fill="#D3DAE6"/>
<rect x="83.5391" y="62.6907" width="6.75" height="1.8" rx="0.9" fill="#D3DAE6"/>
<rect x="98.8379" y="62.6907" width="6.75" height="1.8" rx="0.9" fill="#D3DAE6"/>
<rect x="114.139" y="62.6907" width="6.75" height="1.8" rx="0.9" fill="#D3DAE6"/>
<rect x="129.439" y="62.6907" width="6.75" height="1.8" rx="0.9" fill="#D3DAE6"/>
<rect x="144.738" y="62.6907" width="6.75" height="1.8" rx="0.9" fill="#D3DAE6"/>
<path d="M38.25 48.0639L55.243 33.6119L63.8969 40.9717L70.9773 34.95L86.3969 48.0639L113.302 25.1815L134.386 43.1127L140.995 37.4925L150.75 45.7891" stroke="#F1F4FA" stroke-width="1.8" stroke-linecap="round" stroke-linejoin="round"/>
<path d="M38.25 40.8918L49.677 50.6101L59.4945 42.2606L67.8635 49.3782L85.8892 34.048L109.87 54.4427L117.112 48.2832L127.252 56.9065C135.138 50.2907 150.878 37.0319 150.749 36.9224" stroke="#F1F4FA" stroke-width="1.8" stroke-linecap="round" stroke-linejoin="round"/>
<path d="M150.75 78.5426L129.091 100.201L115.847 86.9567L109.458 93.3452L94.6558 78.5426L75.3345 97.8639L69.4134 91.9429L63.4924 97.8639L46.8199 81.1915L38.25 89.7614" stroke="#F1F4FA" stroke-width="1.8" stroke-linecap="round" stroke-linejoin="round"/>
<path d="M150.75 74.079L131.455 93.3736L124.92 86.8383L116.829 94.9296L104.225 82.3259L93.1774 93.3736L72.3268 72.5229L49.9201 94.9296L46.0301 91.0395L38.25 98.8196" stroke="#F1F4FA" stroke-width="1.8" stroke-linecap="round" stroke-linejoin="round"/>
<mask id="mask0_6_66533" style="mask-type:alpha" maskUnits="userSpaceOnUse" x="37" y="18" width="115" height="99">
<rect x="37.1875" y="18" width="114.75" height="99" fill="#D9D9D9"/>
</mask>
<g mask="url(#mask0_6_66533)">
<path d="M38.25 48.0639L55.243 33.6119L63.8969 40.9717L70.9773 34.95L86.3969 48.0639L113.302 25.1815L134.386 43.1127L140.995 37.4925L150.75 45.7891" stroke="#6092C0" stroke-width="1.8" stroke-linecap="round" stroke-linejoin="round"/>
<path d="M150.75 78.5426L129.091 100.201L115.847 86.9567L109.458 93.3452L94.6558 78.5426L75.3345 97.8639L69.4134 91.9429L63.4924 97.8639L46.8199 81.1915L38.25 89.7614" stroke="#6092C0" stroke-width="1.8" stroke-linecap="round" stroke-linejoin="round"/>
</g>
<mask id="mask1_6_66533" style="mask-type:alpha" maskUnits="userSpaceOnUse" x="27" y="18" width="125" height="99">
<rect x="27" y="18" width="124.489" height="99" fill="#D9D9D9"/>
</mask>
<g mask="url(#mask1_6_66533)">
<path d="M38.25 40.8918L49.677 50.6101L59.4945 42.2606L67.8635 49.3782L85.8892 34.048L109.87 54.4427L117.112 48.2832L127.252 56.9065C135.138 50.2907 150.878 37.0319 150.749 36.9224" stroke="#D36086" stroke-width="1.8" stroke-linecap="round" stroke-linejoin="round"/>
<path d="M150.75 74.0781L131.455 93.3727L124.92 86.8374L116.829 94.9287L104.225 82.325L93.1774 93.3727L72.3268 72.5221L49.9201 94.9287L46.0301 91.0387L38.25 98.8188" stroke="#D36086" stroke-width="1.8" stroke-linecap="round" stroke-linejoin="round"/>
</g>
</g>
<rect x="3.15039" y="27" width="13.5" height="1.8" rx="0.9" fill="#D3DAE6"/>
<rect x="3.15039" y="31.05" width="5.4" height="1.8" rx="0.9" fill="#D3DAE6"/>
<rect x="3.15039" y="35.1" width="14.85" height="1.8" rx="0.9" fill="#D3DAE6"/>
<rect x="3.15039" y="39.15" width="13.5" height="1.8" rx="0.9" fill="#D3DAE6"/>
<rect x="3.15039" y="43.2" width="15.75" height="1.8" rx="0.9" fill="#98A2B3"/>
<rect x="3.15039" y="47.25" width="10.8" height="1.8" rx="0.9" fill="#D3DAE6"/>
<rect x="3.15039" y="51.3" width="13.5" height="1.8" rx="0.9" fill="#D3DAE6"/>
<rect x="3.15039" y="55.35" width="7.2" height="1.8" rx="0.9" fill="#D3DAE6"/>
<rect x="3.15039" y="59.4" width="12.15" height="1.8" rx="0.9" fill="#D3DAE6"/>
<rect x="3.15039" y="21.15" width="16.65" height="2.7" rx="1.35" fill="#98A2B3"/>
<g filter="url(#filter1_ddd_6_66533)">
<rect width="162" height="9" transform="translate(0 9)" fill="white"/>
<path d="M26.0996 11.25H35.0996C35.5967 11.25 35.9996 11.6529 35.9996 12.15V14.85C35.9996 15.3471 35.5967 15.75 35.0996 15.75H26.0996V11.25Z" fill="#69707D" fill-opacity="0.2"/>
<path d="M15.75 12.15C15.75 11.6529 16.1529 11.25 16.65 11.25H25.65V15.75H16.65C16.1529 15.75 15.75 15.3471 15.75 14.85V12.15Z" fill="#006DE4" fill-opacity="0.2"/>
<rect x="9" y="11.25" width="4.5" height="4.5" rx="0.9" fill="#00BFB3"/>
<rect x="2.25" y="11.25" width="4.5" height="4.5" rx="0.9" fill="#D3DAE6"/>
</g>
<rect width="162" height="9" fill="#26282F"/>
<circle cx="157.501" cy="4.50005" r="2.7" fill="#0077CC"/>
<circle cx="150.3" cy="4.50005" r="2.7" fill="#69707D"/>
<rect x="62.0996" y="1.80005" width="38.25" height="5.4" rx="1.35" fill="#69707D"/>
<rect x="9.45117" y="3.15002" width="13.05" height="2.7" rx="1.35" fill="#69707D"/>
<g clip-path="url(#clip1_6_66533)">
<path fill-rule="evenodd" clip-rule="evenodd" d="M7.00841 4.01557C7.13416 4.19573 7.20134 4.41027 7.20079 4.62999C7.1997 4.85059 7.13129 5.0656 7.0047 5.24626C6.87836 5.42659 6.6998 5.56387 6.49305 5.63962C6.55327 5.80507 6.55834 5.98557 6.50748 6.15414C6.45662 6.32271 6.35258 6.47029 6.2109 6.57483C6.06931 6.67888 5.89766 6.73396 5.72197 6.7317C5.54627 6.72945 5.37609 6.66999 5.23721 6.56234C5.04992 6.82498 4.78399 7.02129 4.47784 7.12293C4.17197 7.22442 3.84172 7.22578 3.53503 7.12681C3.22807 7.02759 2.9606 6.83334 2.77127 6.57213C2.58151 6.31046 2.47948 5.99542 2.47984 5.67218C2.4798 5.57453 2.48883 5.47708 2.50684 5.38109C2.29947 5.30677 2.12028 5.16992 1.99401 4.98942C1.86746 4.80852 1.79997 4.5929 1.80079 4.37214C1.80193 4.15152 1.8704 3.93651 1.99704 3.75586C2.12355 3.57552 2.3023 3.43829 2.5092 3.36267C2.44812 3.19714 2.44238 3.01626 2.49282 2.84718C2.54327 2.67809 2.64719 2.52993 2.78899 2.42493C2.93066 2.32037 3.1026 2.26495 3.27866 2.26708C3.45472 2.26921 3.62527 2.32879 3.76436 2.43674C3.96714 2.15359 4.26072 1.94838 4.5963 1.85523C4.93162 1.76233 5.28866 1.78728 5.60779 1.92594C5.92731 2.06487 6.18972 2.30888 6.35147 2.61747C6.51354 2.92651 6.56551 3.28154 6.49879 3.62407C6.70499 3.69885 6.88301 3.8356 7.00841 4.01557ZM3.92366 4.1266L5.10525 4.66846L6.29764 3.62002C6.31491 3.53351 6.3235 3.44549 6.32329 3.35727C6.32341 3.07175 6.23236 2.79365 6.06341 2.56347C5.89487 2.33371 5.65711 2.16403 5.38504 2.07933C5.11323 1.99485 4.82147 1.99994 4.55276 2.09384C4.28368 2.18791 4.05184 2.36576 3.89126 2.60127L3.69315 3.63369L3.92383 4.12644L3.92366 4.1266ZM2.70073 5.38227C2.66339 5.56605 2.66492 5.75562 2.70523 5.93877C2.74554 6.12193 2.82373 6.29462 2.93479 6.44574C3.10426 6.67621 3.34323 6.84621 3.61654 6.93072C3.88952 7.01503 4.18238 7.00929 4.45185 6.91435C4.72173 6.81922 4.95395 6.64 5.11436 6.40304L5.31113 5.37333L5.04872 4.86961L3.86241 4.32775L2.70056 5.3821L2.70073 5.38227ZM3.50314 3.52197L2.69314 3.3301L2.69348 3.32977C2.64661 3.19965 2.64283 3.05792 2.6827 2.92549C2.72257 2.79306 2.80397 2.67697 2.91488 2.59435C3.02579 2.51215 3.16036 2.4681 3.29842 2.4688C3.43647 2.4695 3.57058 2.51491 3.68066 2.59824L3.50314 3.52197ZM2.62294 3.52366C2.44766 3.58172 2.29467 3.69267 2.18503 3.84125C2.07512 3.99007 2.01383 4.1692 2.00954 4.35417C2.00525 4.53913 2.05817 4.72091 2.16107 4.87467C2.26384 5.02823 2.41149 5.14636 2.58379 5.21217L3.71998 4.18263L3.51158 3.73544L2.62294 3.52366ZM5.7087 6.53551C5.56905 6.53527 5.43342 6.48868 5.32311 6.40304L5.4981 5.48268L6.3081 5.67252C6.34348 5.76944 6.35504 5.87345 6.34179 5.97577C6.32855 6.07809 6.29089 6.17573 6.232 6.26045C6.17341 6.34509 6.09523 6.41431 6.00411 6.4622C5.91299 6.5101 5.81164 6.53525 5.7087 6.53551ZM5.48764 5.27005L6.37864 5.47897C6.55661 5.41875 6.71131 5.3044 6.8211 5.15193C6.93113 4.99921 6.99088 4.81602 6.99204 4.62779C6.992 4.4464 6.93692 4.26929 6.83409 4.11985C6.73144 3.97061 6.58575 3.85618 6.41644 3.7918L5.25139 4.81612L5.48764 5.27005Z" fill="white"/>
<path d="M3.92387 4.12664L5.10546 4.6685L6.29785 3.62006C6.31512 3.53355 6.32371 3.44553 6.3235 3.35731C6.32362 3.07179 6.23257 2.79368 6.06362 2.56351C5.89507 2.33375 5.65732 2.16407 5.38525 2.07937C5.11343 1.99489 4.82167 1.99998 4.55297 2.09388C4.28389 2.18795 4.05205 2.3658 3.89147 2.60131L3.69336 3.63372L3.92404 4.12647L3.92387 4.12664Z" fill="#FEC514"/>
<path d="M2.70075 5.38228C2.6634 5.56606 2.66493 5.75562 2.70524 5.93878C2.74555 6.12193 2.82375 6.29462 2.9348 6.44574C3.10427 6.67622 3.34324 6.84622 3.61655 6.93073C3.88953 7.01503 4.18239 7.0093 4.45186 6.91436C4.72174 6.81923 4.95396 6.64 5.11438 6.40305L5.31114 5.37333L5.04873 4.86962L3.86242 4.32776L2.70058 5.38211L2.70075 5.38228Z" fill="#00BFB3"/>
<path d="M2.6921 3.33006L3.5021 3.52193L3.67963 2.59819C3.56955 2.51487 3.43543 2.46946 3.29738 2.46876C3.15932 2.46806 3.02476 2.51211 2.91384 2.59431C2.80293 2.67693 2.72153 2.79302 2.68166 2.92545C2.6418 3.05787 2.64557 3.19961 2.69244 3.32972" fill="#F04E98"/>
<path d="M2.62341 3.52368C2.44812 3.58174 2.29514 3.6927 2.1855 3.84127C2.07558 3.99009 2.0143 4.16923 2.01001 4.35419C2.00572 4.53916 2.05864 4.72093 2.16154 4.87469C2.26431 5.02826 2.41196 5.14638 2.58426 5.21219L3.72045 4.18265L3.51204 3.73546L2.62341 3.52368V3.52368Z" fill="#1BA9F5"/>
<path d="M5.32422 6.40303C5.43454 6.48866 5.57016 6.53526 5.70981 6.5355C5.81275 6.53524 5.9141 6.51009 6.00522 6.46219C6.09634 6.4143 6.17452 6.34508 6.23311 6.26043C6.292 6.17572 6.32966 6.07808 6.3429 5.97576C6.35615 5.87344 6.34459 5.76943 6.30921 5.67251L5.49921 5.48267L5.32422 6.40303Z" fill="#93C90E"/>
<path d="M5.4882 5.27012L6.3792 5.47903C6.55718 5.41881 6.71188 5.30447 6.82167 5.152C6.9317 4.99928 6.99145 4.81608 6.99261 4.62786C6.99256 4.44646 6.93749 4.26935 6.83466 4.11992C6.732 3.97068 6.58632 3.85625 6.417 3.79187L5.25195 4.81618L5.4882 5.27012V5.27012Z" fill="#0077CC"/>
</g>
</g>
<defs>
<filter id="filter0_dddd_6_66533" x="20.7" y="15.615" width="147.6" height="114.435" filterUnits="userSpaceOnUse" color-interpolation-filters="sRGB">
<feFlood flood-opacity="0" result="BackgroundImageFix"/>
<feColorMatrix in="SourceAlpha" type="matrix" values="0 0 0 0 0 0 0 0 0 0 0 0 0 0 0 0 0 0 127 0" result="hardAlpha"/>
<feMorphology radius="0.45" operator="erode" in="SourceAlpha" result="effect1_dropShadow_6_66533"/>
<feOffset dy="6.75"/>
<feGaussianBlur stdDeviation="3.375"/>
<feColorMatrix type="matrix" values="0 0 0 0 0 0 0 0 0 0 0 0 0 0 0 0 0 0 0.04 0"/>
<feBlend mode="normal" in2="BackgroundImageFix" result="effect1_dropShadow_6_66533"/>
<feColorMatrix in="SourceAlpha" type="matrix" values="0 0 0 0 0 0 0 0 0 0 0 0 0 0 0 0 0 0 127 0" result="hardAlpha"/>
<feMorphology radius="0.45" operator="erode" in="SourceAlpha" result="effect2_dropShadow_6_66533"/>
<feOffset dy="2.565"/>
<feGaussianBlur stdDeviation="2.7"/>
<feColorMatrix type="matrix" values="0 0 0 0 0 0 0 0 0 0 0 0 0 0 0 0 0 0 0.05 0"/>
<feBlend mode="normal" in2="effect1_dropShadow_6_66533" result="effect2_dropShadow_6_66533"/>
<feColorMatrix in="SourceAlpha" type="matrix" values="0 0 0 0 0 0 0 0 0 0 0 0 0 0 0 0 0 0 127 0" result="hardAlpha"/>
<feMorphology radius="0.45" operator="erode" in="SourceAlpha" result="effect3_dropShadow_6_66533"/>
<feOffset dy="1.17"/>
<feGaussianBlur stdDeviation="1.8"/>
<feColorMatrix type="matrix" values="0 0 0 0 0 0 0 0 0 0 0 0 0 0 0 0 0 0 0.06 0"/>
<feBlend mode="normal" in2="effect2_dropShadow_6_66533" result="effect3_dropShadow_6_66533"/>
<feColorMatrix in="SourceAlpha" type="matrix" values="0 0 0 0 0 0 0 0 0 0 0 0 0 0 0 0 0 0 127 0" result="hardAlpha"/>
<feMorphology radius="0.45" operator="erode" in="SourceAlpha" result="effect4_dropShadow_6_66533"/>
<feOffset dy="0.405"/>
<feGaussianBlur stdDeviation="0.9"/>
<feColorMatrix type="matrix" values="0 0 0 0 0 0 0 0 0 0 0 0 0 0 0 0 0 0 0.08 0"/>
<feBlend mode="normal" in2="effect3_dropShadow_6_66533" result="effect4_dropShadow_6_66533"/>
<feBlend mode="normal" in="SourceGraphic" in2="effect4_dropShadow_6_66533" result="shape"/>
</filter>
<filter id="filter1_ddd_6_66533" x="-4.5" y="6.525" width="171" height="18" filterUnits="userSpaceOnUse" color-interpolation-filters="sRGB">
<feFlood flood-opacity="0" result="BackgroundImageFix"/>
<feColorMatrix in="SourceAlpha" type="matrix" values="0 0 0 0 0 0 0 0 0 0 0 0 0 0 0 0 0 0 127 0" result="hardAlpha"/>
<feOffset dy="2.025"/>
<feGaussianBlur stdDeviation="2.25"/>
<feColorMatrix type="matrix" values="0 0 0 0 0 0 0 0 0 0 0 0 0 0 0 0 0 0 0.05 0"/>
<feBlend mode="normal" in2="BackgroundImageFix" result="effect1_dropShadow_6_66533"/>
<feColorMatrix in="SourceAlpha" type="matrix" values="0 0 0 0 0 0 0 0 0 0 0 0 0 0 0 0 0 0 127 0" result="hardAlpha"/>
<feOffset dy="0.855"/>
<feGaussianBlur stdDeviation="0.9"/>
<feColorMatrix type="matrix" values="0 0 0 0 0 0 0 0 0 0 0 0 0 0 0 0 0 0 0.05 0"/>
<feBlend mode="normal" in2="effect1_dropShadow_6_66533" result="effect2_dropShadow_6_66533"/>
<feColorMatrix in="SourceAlpha" type="matrix" values="0 0 0 0 0 0 0 0 0 0 0 0 0 0 0 0 0 0 127 0" result="hardAlpha"/>
<feOffset dy="0.315"/>
<feGaussianBlur stdDeviation="0.315"/>
<feColorMatrix type="matrix" values="0 0 0 0 0 0 0 0 0 0 0 0 0 0 0 0 0 0 0.07 0"/>
<feBlend mode="normal" in2="effect2_dropShadow_6_66533" result="effect3_dropShadow_6_66533"/>
<feBlend mode="normal" in="SourceGraphic" in2="effect3_dropShadow_6_66533" result="shape"/>
</filter>
<clipPath id="clip0_6_66533">
<rect width="162" height="117" rx="3.6" fill="white"/>
</clipPath>
<clipPath id="clip1_6_66533">
<rect width="5.4" height="5.4" fill="white" transform="translate(1.80078 1.80005)"/>
</clipPath>
</defs>
</svg>

<svg xmlns="http://www.w3.org/2000/svg" width="162" height="117" fill="none"><g clip-path="url(#a)"><rect width="162" height="117" fill="#F7F8FC" rx="3.6"/><g filter="url(#b)"><path fill="#fff" d="M27 18h135v99H27z"/><rect width="6.75" height="1.8" x="37.639" y="105.891" fill="#D3DAE6" rx=".9"/><rect width="6.75" height="1.8" x="52.94" y="105.891" fill="#D3DAE6" rx=".9"/><rect width="6.75" height="1.8" x="68.238" y="105.891" fill="#D3DAE6" rx=".9"/><rect width="6.75" height="1.8" x="83.539" y="105.891" fill="#D3DAE6" rx=".9"/><rect width="6.75" height="1.8" x="98.838" y="105.891" fill="#D3DAE6" rx=".9"/><rect width="6.75" height="1.8" x="114.139" y="105.891" fill="#D3DAE6" rx=".9"/><rect width="6.75" height="1.8" x="129.439" y="105.891" fill="#D3DAE6" rx=".9"/><rect width="6.75" height="1.8" x="144.738" y="105.891" fill="#D3DAE6" rx=".9"/><rect width="6.75" height="1.8" x="37.639" y="62.691" fill="#D3DAE6" rx=".9"/><rect width="6.75" height="1.8" x="52.94" y="62.691" fill="#D3DAE6" rx=".9"/><rect width="6.75" height="1.8" x="68.238" y="62.691" fill="#D3DAE6" rx=".9"/><rect width="6.75" height="1.8" x="83.539" y="62.691" fill="#D3DAE6" rx=".9"/><rect width="6.75" height="1.8" x="98.838" y="62.691" fill="#D3DAE6" rx=".9"/><rect width="6.75" height="1.8" x="114.139" y="62.691" fill="#D3DAE6" rx=".9"/><rect width="6.75" height="1.8" x="129.439" y="62.691" fill="#D3DAE6" rx=".9"/><rect width="6.75" height="1.8" x="144.738" y="62.691" fill="#D3DAE6" rx=".9"/><path stroke="#F1F4FA" stroke-linecap="round" stroke-linejoin="round" stroke-width="1.8" d="m38.25 48.064 16.993-14.452 8.654 7.36 7.08-6.022 15.42 13.114 26.905-22.882 21.084 17.93 6.609-5.62 9.755 8.297"/><path stroke="#F1F4FA" stroke-linecap="round" stroke-linejoin="round" stroke-width="1.8" d="m38.25 40.892 11.427 9.718 9.818-8.35 8.369 7.118 18.025-15.33 23.981 20.395 7.242-6.16 10.14 8.624c7.886-6.616 23.626-19.875 23.497-19.985M150.75 78.543 129.091 100.2l-13.244-13.244-6.389 6.388-14.802-14.802-19.321 19.32-5.922-5.92-5.92 5.92L46.82 81.193l-8.57 8.57"/><path stroke="#F1F4FA" stroke-linecap="round" stroke-linejoin="round" stroke-width="1.8" d="m150.75 74.079-19.295 19.295-6.535-6.536-8.091 8.092-12.604-12.604-11.048 11.048-20.85-20.851L49.92 94.93l-3.89-3.89-7.78 7.78"/><mask id="c" width="115" height="99" x="37" y="18" maskUnits="userSpaceOnUse" style="mask-type:alpha"><path fill="#D9D9D9" d="M37.188 18h114.75v99H37.188z"/></mask><g stroke="#6092C0" stroke-linecap="round" stroke-linejoin="round" stroke-width="1.8" mask="url(#c)"><path d="m38.25 48.064 16.993-14.452 8.654 7.36 7.08-6.022 15.42 13.114 26.905-22.882 21.084 17.93 6.609-5.62 9.755 8.297M150.75 78.543 129.091 100.2l-13.244-13.244-6.389 6.388-14.802-14.802-19.321 19.32-5.922-5.92-5.92 5.92L46.82 81.193l-8.57 8.57"/></g><mask id="d" width="125" height="99" x="27" y="18" maskUnits="userSpaceOnUse" style="mask-type:alpha"><path fill="#D9D9D9" d="M27 18h124.489v99H27z"/></mask><g stroke="#D36086" stroke-linecap="round" stroke-linejoin="round" stroke-width="1.8" mask="url(#d)"><path d="m38.25 40.892 11.427 9.718 9.818-8.35 8.369 7.118 18.025-15.33 23.981 20.395 7.242-6.16 10.14 8.624c7.886-6.616 23.626-19.875 23.497-19.985M150.75 74.078l-19.295 19.295-6.535-6.536-8.091 8.092-12.604-12.604-11.048 11.048-20.85-20.85L49.92 94.928l-3.89-3.89-7.78 7.78"/></g></g><rect width="13.5" height="1.8" x="3.15" y="27" fill="#D3DAE6" rx=".9"/><rect width="5.4" height="1.8" x="3.15" y="31.05" fill="#D3DAE6" rx=".9"/><rect width="14.85" height="1.8" x="3.15" y="35.1" fill="#D3DAE6" rx=".9"/><rect width="13.5" height="1.8" x="3.15" y="39.15" fill="#D3DAE6" rx=".9"/><rect width="15.75" height="1.8" x="3.15" y="43.2" fill="#98A2B3" rx=".9"/><rect width="10.8" height="1.8" x="3.15" y="47.25" fill="#D3DAE6" rx=".9"/><rect width="13.5" height="1.8" x="3.15" y="51.3" fill="#D3DAE6" rx=".9"/><rect width="7.2" height="1.8" x="3.15" y="55.35" fill="#D3DAE6" rx=".9"/><rect width="12.15" height="1.8" x="3.15" y="59.4" fill="#D3DAE6" rx=".9"/><rect width="16.65" height="2.7" x="3.15" y="21.15" fill="#98A2B3" rx="1.35"/><g filter="url(#e)"><path fill="#fff" d="M0 9h162v9H0z"/><path fill="#69707D" fill-opacity=".2" d="M26.1 11.25h9a.9.9 0 0 1 .9.9v2.7a.9.9 0 0 1-.9.9h-9z"/><path fill="#006DE4" fill-opacity=".2" d="M15.75 12.15a.9.9 0 0 1 .9-.9h9v4.5h-9a.9.9 0 0 1-.9-.9z"/><rect width="4.5" height="4.5" x="9" y="11.25" fill="#00BFB3" rx=".9"/><rect width="4.5" height="4.5" x="2.25" y="11.25" fill="#D3DAE6" rx=".9"/></g><path fill="#26282F" d="M0 0h162v9H0z"/><circle cx="157.501" cy="4.5" r="2.7" fill="#07C"/><circle cx="150.3" cy="4.5" r="2.7" fill="#69707D"/><rect width="38.25" height="5.4" x="62.1" y="1.8" fill="#69707D" rx="1.35"/><rect width="13.05" height="2.7" x="9.451" y="3.15" fill="#69707D" rx="1.35"/><g clip-path="url(#f)"><path fill="#fff" fill-rule="evenodd" d="M7.008 4.016a1.07 1.07 0 0 1-.003 1.23c-.127.18-.305.318-.512.394a.816.816 0 0 1-.771 1.092.8.8 0 0 1-.485-.17 1.52 1.52 0 0 1-1.702.565A1.52 1.52 0 0 1 2.48 5.672q0-.147.027-.29a1.06 1.06 0 0 1-.706-1.01 1.08 1.08 0 0 1 .708-1.01.816.816 0 0 1 .77-1.095.8.8 0 0 1 .485.17 1.525 1.525 0 0 1 1.844-.511 1.53 1.53 0 0 1 .89 1.698c.207.075.385.212.51.392m-3.084.11 1.181.542L6.298 3.62q.026-.13.025-.263a1.34 1.34 0 0 0-.938-1.278 1.33 1.33 0 0 0-1.494.522l-.198 1.033zM2.7 5.383a1.344 1.344 0 0 0 .916 1.549 1.33 1.33 0 0 0 1.497-.528l.197-1.03-.262-.503-1.187-.542zm.802-1.86-.81-.192a.645.645 0 0 1 .605-.861c.138 0 .273.046.383.13zm-.88.002a.89.89 0 0 0-.613.83.9.9 0 0 0 .574.858l1.136-1.03-.208-.447zm3.086 3.012a.63.63 0 0 1-.386-.133l.175-.92.81.19a.643.643 0 0 1-.6.863M5.488 5.27l.89.209a.9.9 0 0 0 .456-1.36.9.9 0 0 0-.418-.327L5.251 4.816z" clip-rule="evenodd"/><path fill="#FEC514" d="m3.924 4.127 1.181.542L6.298 3.62q.026-.13.026-.263a1.34 1.34 0 0 0-.939-1.278 1.33 1.33 0 0 0-1.494.522l-.198 1.033z"/><path fill="#00BFB3" d="M2.7 5.382a1.344 1.344 0 0 0 .917 1.549 1.33 1.33 0 0 0 1.497-.528l.197-1.03-.262-.503-1.187-.542z"/><path fill="#F04E98" d="m2.692 3.33.81.192.178-.924a.64.64 0 0 0-.998.327.65.65 0 0 0 .01.405"/><path fill="#1BA9F5" d="M2.623 3.524a.89.89 0 0 0-.613.83.9.9 0 0 0 .574.858l1.136-1.03-.208-.447z"/><path fill="#93C90E" d="M5.324 6.403a.63.63 0 0 0 .91-.143.64.64 0 0 0 .075-.587l-.81-.19z"/><path fill="#07C" d="m5.488 5.27.891.209a.9.9 0 0 0 .456-1.36.9.9 0 0 0-.418-.327L5.252 4.816z"/></g></g><defs><clipPath id="a"><rect width="162" height="117" fill="#fff" rx="3.6"/></clipPath><clipPath id="f"><path fill="#fff" d="M1.8 1.8h5.4v5.4H1.8z"/></clipPath><filter id="b" width="147.6" height="114.435" x="20.7" y="15.615" color-interpolation-filters="sRGB" filterUnits="userSpaceOnUse"><feFlood flood-opacity="0" result="BackgroundImageFix"/><feColorMatrix in="SourceAlpha" result="hardAlpha" values="0 0 0 0 0 0 0 0 0 0 0 0 0 0 0 0 0 0 127 0"/><feMorphology in="SourceAlpha" radius=".45" result="effect1_dropShadow_6_66533"/><feOffset dy="6.75"/><feGaussianBlur stdDeviation="3.375"/><feColorMatrix values="0 0 0 0 0 0 0 0 0 0 0 0 0 0 0 0 0 0 0.04 0"/><feBlend in2="BackgroundImageFix" result="effect1_dropShadow_6_66533"/><feColorMatrix in="SourceAlpha" result="hardAlpha" values="0 0 0 0 0 0 0 0 0 0 0 0 0 0 0 0 0 0 127 0"/><feMorphology in="SourceAlpha" radius=".45" result="effect2_dropShadow_6_66533"/><feOffset dy="2.565"/><feGaussianBlur stdDeviation="2.7"/><feColorMatrix values="0 0 0 0 0 0 0 0 0 0 0 0 0 0 0 0 0 0 0.05 0"/><feBlend in2="effect1_dropShadow_6_66533" result="effect2_dropShadow_6_66533"/><feColorMatrix in="SourceAlpha" result="hardAlpha" values="0 0 0 0 0 0 0 0 0 0 0 0 0 0 0 0 0 0 127 0"/><feMorphology in="SourceAlpha" radius=".45" result="effect3_dropShadow_6_66533"/><feOffset dy="1.17"/><feGaussianBlur stdDeviation="1.8"/><feColorMatrix values="0 0 0 0 0 0 0 0 0 0 0 0 0 0 0 0 0 0 0.06 0"/><feBlend in2="effect2_dropShadow_6_66533" result="effect3_dropShadow_6_66533"/><feColorMatrix in="SourceAlpha" result="hardAlpha" values="0 0 0 0 0 0 0 0 0 0 0 0 0 0 0 0 0 0 127 0"/><feMorphology in="SourceAlpha" radius=".45" result="effect4_dropShadow_6_66533"/><feOffset dy=".405"/><feGaussianBlur stdDeviation=".9"/><feColorMatrix values="0 0 0 0 0 0 0 0 0 0 0 0 0 0 0 0 0 0 0.08 0"/><feBlend in2="effect3_dropShadow_6_66533" result="effect4_dropShadow_6_66533"/><feBlend in="SourceGraphic" in2="effect4_dropShadow_6_66533" result="shape"/></filter><filter id="e" width="171" height="18" x="-4.5" y="6.525" color-interpolation-filters="sRGB" filterUnits="userSpaceOnUse"><feFlood flood-opacity="0" result="BackgroundImageFix"/><feColorMatrix in="SourceAlpha" result="hardAlpha" values="0 0 0 0 0 0 0 0 0 0 0 0 0 0 0 0 0 0 127 0"/><feOffset dy="2.025"/><feGaussianBlur stdDeviation="2.25"/><feColorMatrix values="0 0 0 0 0 0 0 0 0 0 0 0 0 0 0 0 0 0 0.05 0"/><feBlend in2="BackgroundImageFix" result="effect1_dropShadow_6_66533"/><feColorMatrix in="SourceAlpha" result="hardAlpha" values="0 0 0 0 0 0 0 0 0 0 0 0 0 0 0 0 0 0 127 0"/><feOffset dy=".855"/><feGaussianBlur stdDeviation=".9"/><feColorMatrix values="0 0 0 0 0 0 0 0 0 0 0 0 0 0 0 0 0 0 0.05 0"/><feBlend in2="effect1_dropShadow_6_66533" result="effect2_dropShadow_6_66533"/><feColorMatrix in="SourceAlpha" result="hardAlpha" values="0 0 0 0 0 0 0 0 0 0 0 0 0 0 0 0 0 0 127 0"/><feOffset dy=".315"/><feGaussianBlur stdDeviation=".315"/><feColorMatrix values="0 0 0 0 0 0 0 0 0 0 0 0 0 0 0 0 0 0 0.07 0"/><feBlend in2="effect2_dropShadow_6_66533" result="effect3_dropShadow_6_66533"/><feBlend in="SourceGraphic" in2="effect3_dropShadow_6_66533" result="shape"/></filter></defs></svg>
